packages/components/icon/src/assets/icons/pin.svg

<svg width="24" height="24" viewBox="0 0 24 24" fill="none" xmlns="http://www.w3.org/2000/svg">
<path fill-rule="evenodd" clip-rule="evenodd" d="M16.6756 13.155C16.6756 13.2417 16.6395 13.314 16.5671 13.3719C16.4948 13.4298 16.4081 13.4587 16.3068 13.4587H7.34711C7.24587 13.4587 7.16271 13.4298 7.09762 13.3719C7.03254 13.314 7 13.2417 7 13.155L7.34711 11.7882L7.41219 11.6364L7.45558 11.593L7.56405 11.5062L7.62913 11.4845L7.69421 11.4411L7.78099 11.3977L7.88946 11.376C7.90393 11.3616 7.922 11.3543 7.9437 11.3543C7.96539 11.3543 7.98347 11.3471 7.99793 11.3326L8.1064 11.311L8.23657 11.2893L8.36674 11.2459L8.54029 11.2242L8.80062 11.1591H8.8657L9.03926 11.094C9.09711 11.094 9.14773 11.0723 9.19112 11.0289L9.34298 10.9638L9.45145 10.8554C9.5093 10.7975 9.54545 10.7541 9.55992 10.7252C9.58884 10.7107 9.61777 10.6746 9.64669 10.6167C9.66116 10.6023 9.672 10.577 9.67924 10.5408C9.68647 10.5046 9.69731 10.4793 9.71178 10.4649C9.7407 10.407 9.75517 10.3564 9.75517 10.313L9.77686 10.1612V10.1178H9.79855V9.81405L9.82025 9.74897V9.46694C9.83471 9.43802 9.84194 9.40186 9.84194 9.35847V9.16322L9.86364 9.05475V8.83781L9.88533 8.70764V8.4907L9.90702 8.38223V8.1436C9.92149 8.11467 9.92872 8.07851 9.92872 8.03512V7.81818C9.94318 7.78926 9.95041 7.7531 9.95041 7.70971V7.49277L9.97211 7.40599V7.16736C9.97211 7.13843 9.97934 7.11674 9.9938 7.10227V6.86364C10.0083 6.83471 10.0119 6.81302 10.0046 6.79855C9.99742 6.78409 9.9938 6.76963 9.9938 6.75517L9.92872 6.625L9.82025 6.47314L9.66839 6.34298C9.61054 6.28512 9.55992 6.24897 9.51653 6.2345L9.40806 6.16942C9.35021 6.1405 9.29959 6.12603 9.2562 6.12603C9.24174 6.11157 9.22366 6.10434 9.20196 6.10434C9.18027 6.10434 9.16219 6.09711 9.14773 6.08264H9.08264C9.06818 6.06818 9.04649 6.06095 9.01756 6.06095L8.8874 5.99587C8.82955 5.96694 8.79339 5.94525 8.77893 5.93079L8.73554 5.90909C8.67769 5.85124 8.6343 5.77169 8.60537 5.67045L8.25826 4.30372C8.25826 4.2314 8.29081 4.16271 8.35589 4.09762C8.42097 4.03254 8.50413 4 8.60537 4H15.0486C15.1498 4 15.2366 4.03254 15.3089 4.09762C15.3812 4.16271 15.4174 4.2314 15.4174 4.30372L15.0486 5.67045C15.0486 5.74277 15.0052 5.82231 14.9184 5.90909L14.875 5.95248L14.7014 6.03926L14.6364 6.06095C14.6074 6.06095 14.5857 6.06818 14.5713 6.08264H14.5279C14.5134 6.09711 14.4954 6.10434 14.4737 6.10434C14.452 6.10434 14.4339 6.11157 14.4194 6.12603C14.376 6.12603 14.3254 6.1405 14.2676 6.16942L14.1591 6.2345C14.1446 6.2345 14.0868 6.27066 13.9855 6.34298L13.8554 6.47314L13.7469 6.625L13.6818 6.75517C13.6674 6.78409 13.6601 6.82025 13.6601 6.86364C13.6746 6.89256 13.6818 6.92872 13.6818 6.97211V7.16736C13.6818 7.19628 13.689 7.21798 13.7035 7.23244V7.49277L13.7252 7.60124V7.81818C13.7252 7.86157 13.7324 7.89773 13.7469 7.92665V8.1436C13.7469 8.20145 13.7541 8.2376 13.7686 8.25207V8.4907L13.7903 8.59917V8.83781L13.812 8.94628V9.16322L13.8337 9.27169V9.46694L13.8554 9.55372V9.81405C13.8554 9.85744 13.8626 9.88636 13.8771 9.90083V10.1395L13.8988 10.1612C13.8988 10.2335 13.906 10.2841 13.9205 10.313L13.9421 10.4649L14.0072 10.6167L14.094 10.7252L14.2025 10.8554L14.3326 10.9638L14.4845 11.0289C14.5279 11.0723 14.5785 11.094 14.6364 11.094L14.7882 11.1591H14.875L15.1353 11.2242L15.3089 11.2459L15.439 11.2893L15.5692 11.311L15.6777 11.3326L15.7862 11.376L15.8729 11.3977L16.0465 11.4845L16.1116 11.5062L16.22 11.593L16.2634 11.6364C16.2924 11.6942 16.3068 11.7448 16.3068 11.7882L16.6756 13.155ZM12.7273 14.3915V18.0362L11.9246 20.249H11.7293L10.9483 18.0362V14.3915H12.7273Z" fill="currentColor"/>
</svg>

<svg viewBox="0 0 24 24" fill="none" xmlns="http://www.w3.org/2000/svg"><path fill-rule="evenodd" clip-rule="evenodd" d="M16.676 13.155a.267.267 0 0 1-.109.217.403.403 0 0 1-.26.087h-8.96a.361.361 0 0 1-.25-.087.278.278 0 0 1-.097-.217l.347-1.367.065-.152.044-.043.108-.087.065-.021.065-.044.087-.043.108-.022a.074.074 0 0 1 .055-.022c.021 0 .04-.007.054-.021l.108-.022.13-.022.13-.043.174-.022.26-.065h.066l.173-.065a.208.208 0 0 0 .152-.065l.152-.065.108-.109a.62.62 0 0 0 .109-.13c.029-.014.058-.05.087-.108a.149.149 0 0 0 .032-.076.148.148 0 0 1 .033-.076.35.35 0 0 0 .043-.152l.022-.152v-.043h.022v-.304l.021-.065v-.282a.241.241 0 0 0 .022-.109v-.195l.022-.108v-.217l.021-.13V8.49l.022-.109v-.238a.241.241 0 0 0 .022-.109v-.217a.241.241 0 0 0 .021-.108v-.217l.022-.087v-.239c0-.029.007-.05.022-.065v-.238c.014-.03.018-.051.01-.065a.097.097 0 0 1-.01-.044l-.065-.13-.109-.152-.152-.13a.427.427 0 0 0-.151-.109l-.109-.065a.35.35 0 0 0-.152-.043.074.074 0 0 0-.054-.022.074.074 0 0 1-.054-.021h-.065c-.015-.015-.037-.022-.065-.022l-.13-.065a.502.502 0 0 1-.11-.065l-.042-.022a.54.54 0 0 1-.13-.239l-.348-1.366a.29.29 0 0 1 .098-.206.338.338 0 0 1 .25-.098h6.443c.1 0 .188.033.26.098.072.065.108.133.108.206L15.05 5.67c0 .073-.044.152-.13.24l-.044.042-.174.087-.065.022c-.029 0-.05.007-.065.022h-.043a.074.074 0 0 1-.054.021.074.074 0 0 0-.055.022.35.35 0 0 0-.151.043l-.109.066a.762.762 0 0 0-.174.108l-.13.13-.108.152-.065.13a.242.242 0 0 0-.022.109.241.241 0 0 1 .022.108v.195c0 .03.007.051.021.065v.26l.022.11v.216c0 .044.007.08.022.109v.217c0 .057.007.094.022.108v.239l.021.108v.239l.022.108v.217l.022.109v.195l.021.087v.26c0 .043.008.072.022.087v.239l.022.021c0 .072.007.123.022.152l.021.152.065.152.087.108.109.13.13.109.152.065a.208.208 0 0 0 .151.065l.152.065h.087l.26.065.174.022.13.043.13.022.109.022.108.043.087.022.174.087.065.021.108.087.043.043a.348.348 0 0 1 .044.152l.369 1.367Zm-3.949 1.237v3.644l-.802 2.213h-.196l-.78-2.213v-3.645h1.778Z" fill="currentColor"/></svg>
